assets/images/logo.svg

<?xml version="1.0" encoding="UTF-8" standalone="no" ?>
<!DOCTYPE svg PUBLIC "-//W3C//DTD SVG 1.1//EN" "http://www.w3.org/Graphics/SVG/1.1/DTD/svg11.dtd">
<svg xmlns="http://www.w3.org/2000/svg" xmlns:xlink="http://www.w3.org/1999/xlink" version="1.1" width="1080" height="1080" viewBox="0 0 1080 1080" xml:space="preserve">
<desc>Created with Fabric.js 5.2.4</desc>
<defs>
</defs>
<g transform="matrix(1 0 0 1 540 540)" id="5225f9c6-1425-41d1-8146-d93e2f8e94f5"  >
</g>
<g transform="matrix(1 0 0 1 540 540)" id="5b22e5f1-ddbb-4229-8b26-547a582e11a1"  >
<rect style="stroke: none; stroke-width: 1; stroke-dasharray: none; stroke-linecap: butt; stroke-dashoffset: 0; stroke-linejoin: miter; stroke-miterlimit: 4; fill: rgb(255,255,255); fill-rule: nonzero; opacity: 1; visibility: hidden;" vector-effect="non-scaling-stroke"  x="-540" y="-540" rx="0" ry="0" width="1080" height="1080" />
</g>
<g transform="matrix(1 0 0 1 378.76 540)"  >
<path style="stroke: none; stroke-width: 1; stroke-dasharray: none; stroke-linecap: butt; stroke-dashoffset: 0; stroke-linejoin: miter; stroke-miterlimit: 4; fill: rgb(255,255,255); fill-rule: nonzero; opacity: 1;" vector-effect="non-scaling-stroke"  transform=" translate(-259.71, -298.8)" d="M 227.04 252.66 L 246.32 252.66 L 246.32 328.34000000000003 L 292.39 328.34000000000003 L 292.39 344.93 L 227.04 344.93 L 227.04 252.67000000000002 Z" stroke-linecap="round" />
</g>
<g transform="matrix(1 0 0 1 453.3 541.16)"  >
<path style="stroke: none; stroke-width: 1; stroke-dasharray: none; stroke-linecap: butt; stroke-dashoffset: 0; stroke-linejoin: miter; stroke-miterlimit: 4; fill: rgb(255,255,255); fill-rule: nonzero; opacity: 1;" vector-effect="non-scaling-stroke"  transform=" translate(-334.25, -298.79)" d="M 366.06 269 L 321.28 269 L 321.28 288.59 L 366.05999999999995 288.59 L 366.05999999999995 304.60999999999996 L 321.28 304.60999999999996 L 321.28 328.3299999999999 L 366.05999999999995 328.3299999999999 L 366.05999999999995 344.9199999999999 L 302.43999999999994 344.9199999999999 L 302.43999999999994 252.6599999999999 L 366.05999999999995 252.6599999999999 L 366.05999999999995 268.9999999999999 Z" stroke-linecap="round" />
</g>
<g transform="matrix(1 0 0 1 595.82 540.66)"  >
<path style="stroke: none; stroke-width: 1; stroke-dasharray: none; stroke-linecap: butt; stroke-dashoffset: 0; stroke-linejoin: miter; stroke-miterlimit: 4; fill: rgb(255,255,255); fill-rule: nonzero; opacity: 1;" vector-effect="non-scaling-stroke"  transform=" translate(-476.76, -298.29)" d="M 486.34 344.42 L 467.19 344.42 L 467.19 252.16000000000003 L 486.34 252.16000000000003 L 486.34 344.42 Z" stroke-linecap="round" />
</g>
<g transform="matrix(1 0 0 1 660.82 541.16)"  >
<path style="stroke: none; stroke-width: 1; stroke-dasharray: none; stroke-linecap: butt; stroke-dashoffset: 0; stroke-linejoin: miter; stroke-miterlimit: 4; fill: rgb(255,255,255); fill-rule: nonzero; opacity: 1;" vector-effect="non-scaling-stroke"  transform=" translate(-541.76, -298.79)" d="M 504.37 252.66 L 524.58 252.66 L 561.2 316.99 L 561.2 252.66000000000003 L 579.1600000000001 252.66000000000003 L 579.1600000000001 344.92 L 559.8800000000001 344.92 L 522.3200000000002 279.46000000000004 L 522.3200000000002 344.92 L 504.3600000000002 344.92 L 504.3600000000002 252.66000000000003 Z" stroke-linecap="round" />
</g>
<g transform="matrix(1 0 0 1 724.33 541.17)"  >
<path style="stroke: none; stroke-width: 1; stroke-dasharray: none; stroke-linecap: butt; stroke-dashoffset: 0; stroke-linejoin: miter; stroke-miterlimit: 4; fill: rgb(255,255,255); fill-rule: nonzero; opacity: 1;" vector-effect="non-scaling-stroke"  transform=" translate(-605.28, -298.8)" d="M 614.85 344.93 L 595.7 344.93 L 595.7 252.67000000000002 L 614.85 252.67000000000002 L 614.85 344.93 Z" stroke-linecap="round" />
</g>
<g transform="matrix(1 0 0 1 535.54 531.67)"  >
<path style="stroke: none; stroke-width: 1; stroke-dasharray: none; stroke-linecap: butt; stroke-dashoffset: 0; stroke-linejoin: miter; stroke-miterlimit: 4; fill: rgb(210,79,114); fill-rule: nonzero; opacity: 1;" vector-effect="non-scaling-stroke"  transform=" translate(-416.49, -289.31)" d="M 448.83 320.44 L 407.57 320.5 C 408.74 318.54 410.19 316.83 411.9 315.35 C 413.62 313.87 416.79999999999995 311.48 421.46 308.18 L 428.90999999999997 302.90000000000003 C 435.17999999999995 298.47 439.68999999999994 294.45000000000005 442.42999999999995 290.84000000000003 C 446.60999999999996 285.41 448.69999999999993 279.19000000000005 448.69999999999993 272.20000000000005 C 448.69999999999993 263.07000000000005 445.73999999999995 255.74000000000004 439.8299999999999 250.20000000000005 C 438.3299999999999 248.80000000000004 436.69999999999993 247.58000000000004 434.94999999999993 246.54000000000005 C 423.06999999999994 239.47000000000006 404.98999999999995 240.13000000000005 394.2199999999999 249.22000000000006 C 393.8399999999999 249.54000000000005 393.4799999999999 249.86000000000004 393.1199999999999 250.20000000000005 C 387.1999999999999 255.74000000000004 384.2499999999999 263.07000000000005 384.2499999999999 272.20000000000005 C 384.2499999999999 279.20000000000005 386.33999999999986 285.41 390.51999999999987 290.84000000000003 C 392.5699999999999 293.53000000000003 395.58999999999986 296.45000000000005 399.59999999999985 299.6 C 401.3199999999999 298.20000000000005 403.17999999999984 296.79 405.17999999999984 295.36 C 408.42999999999984 293.03000000000003 411.23999999999984 290.96000000000004 413.58999999999986 289.16 C 412.91999999999985 288.62 412.15999999999985 287.99 411.36999999999983 287.27000000000004 C 406.41999999999985 282.91 401.6999999999998 276.63000000000005 401.6999999999998 269.76000000000005 C 401.6999999999998 260.29 408.16999999999985 254.70000000000005 416.2299999999998 254.51000000000005 C 416.2999999999998 254.51000000000005 416.3599999999998 254.51000000000005 416.4299999999998 254.51000000000005 C 416.4999999999998 254.51000000000005 416.5599999999998 254.51000000000005 416.62999999999977 254.51000000000005 C 424.68999999999977 254.69000000000005 431.15999999999974 260.28000000000003 431.15999999999974 269.75000000000006 C 431.15999999999974 282.76000000000005 416.50999999999976 291.68000000000006 407.26999999999975 298.27000000000004 C 397.39999999999975 305.31000000000006 391.14999999999975 311.98 388.4999999999998 318.28000000000003 C 385.75999999999976 323.89000000000004 384.2999999999998 330.08000000000004 384.12999999999977 336.86 L 426.43999999999977 336.86 C 426.43999999999977 336.86 448.8599999999998 336.86 448.8599999999998 336.86 L 448.8599999999998 320.43 Z" stroke-linecap="round" />
</g>
<g transform="matrix(1 0 0 1 535.51 586.35)"  >
<rect style="stroke: none; stroke-width: 1; stroke-dasharray: none; stroke-linecap: butt; stroke-dashoffset: 0; stroke-linejoin: miter; stroke-miterlimit: 4; fill: rgb(210,79,114); fill-rule: nonzero; opacity: 1;" vector-effect="non-scaling-stroke"  x="-8.18" y="-9.53" rx="0" ry="0" width="16.36" height="19.06" />
</g>
<g transform="matrix(1 0 0 1 535.51 512)"  >
<circle style="stroke: none; stroke-width: 1; stroke-dasharray: none; stroke-linecap: butt; stroke-dashoffset: 0; stroke-linejoin: miter; stroke-miterlimit: 4; fill: rgb(210,79,114); fill-rule: nonzero; opacity: 1;" vector-effect="non-scaling-stroke"  cx="0" cy="0" r="9.81" />
</g>
</svg>

<?xml version="1.0" encoding="UTF-8"?><svg id="Layer_1" xmlns="http://www.w3.org/2000/svg" viewBox="0 0 841.89 595.28"><defs><style>.cls-1{fill:#fec661;}.cls-2{fill:#d24f72;}</style></defs><g><path class="cls-1" d="M227.04,252.66h19.28v75.68h46.07v16.59h-65.35v-92.26Z"/><path class="cls-1" d="M366.06,269h-44.78v19.59h44.78v16.02h-44.78v23.72h44.78v16.59h-63.62v-92.26h63.62v16.34Z"/><path class="cls-1" d="M486.34,344.42h-19.15v-92.26h19.15v92.26Z"/><path class="cls-1" d="M504.37,252.66h20.21l36.62,64.33v-64.33h17.96v92.26h-19.28l-37.56-65.46v65.46h-17.96v-92.26Z"/><path class="cls-1" d="M614.85,344.93h-19.15v-92.26h19.15v92.26Z"/></g><g><path class="cls-2" d="M448.83,320.44l-41.26,.06c1.17-1.96,2.62-3.67,4.33-5.15,1.72-1.48,4.9-3.87,9.56-7.17l7.45-5.28c6.27-4.43,10.78-8.45,13.52-12.06,4.18-5.43,6.27-11.65,6.27-18.64,0-9.13-2.96-16.46-8.87-22-1.5-1.4-3.13-2.62-4.88-3.66-11.88-7.07-29.96-6.41-40.73,2.68-.38,.32-.74,.64-1.1,.98-5.92,5.54-8.87,12.87-8.87,22,0,7,2.09,13.21,6.27,18.64,2.05,2.69,5.07,5.61,9.08,8.76,1.72-1.4,3.58-2.81,5.58-4.24,3.25-2.33,6.06-4.4,8.41-6.2-.67-.54-1.43-1.17-2.22-1.89-4.95-4.36-9.67-10.64-9.67-17.51,0-9.47,6.47-15.06,14.53-15.25,.07,0,.13,0,.2,0,.07,0,.13,0,.2,0,8.06,.18,14.53,5.77,14.53,15.24,0,13.01-14.65,21.93-23.89,28.52-9.87,7.04-16.12,13.71-18.77,20.01-2.74,5.61-4.2,11.8-4.37,18.58h42.31s22.42,0,22.42,0v-16.43Z"/><rect class="cls-2" x="408.28" y="334.45" width="16.36" height="19.06"/><circle class="cls-2" cx="416.46" cy="269.63" r="9.81"/></g></svg>
